gama.ui.shared/icons_svg/light/status/status.progress1.svg

<svg height="24.75" viewBox="-997.645 -3568.334 24.75 24.75" width="24.75" xmlns="http://www.w3.org/2000/svg"><path d="m-980.8256-3550.4078c1.665-1.3332 2.6667-3.3569 2.6667-5.5517 0-3.7635-2.9327-6.8695-6.6707-7.0977-.245-.0148-.4315-.2258-.4166-.4708.015-.245.2257-.4314.4707-.4165 4.2064.2568 7.5055 3.7509 7.5055 7.985 0 2.4559-1.1157 4.7225-2.9709 6.2222h2.5264c.2455 0 .4445.199.4445.4443 0 .2456-.199.4446-.4445.4446h-3.5555c-.2455 0-.4445-.199-.4445-.4446v-3.5554c0-.2456.199-.4446.4445-.4446.2454 0 .4444.199.4444.4446zm-8.8889-11.1035c-1.6649 1.3333-2.6667 3.3568-2.6667 5.5518 0 3.7755 2.9508 6.8875 6.703 7.0995.2451.014.4325.224.4186.469-.0138.245-.2237.4324-.4688.4186-4.2222-.2386-7.5416-3.7396-7.5416-7.9871 0-2.4561 1.1157-4.7225 2.9708-6.2223h-2.5264c-.2455 0-.4444-.1989-.4444-.4442 0-.2457.1989-.4446.4444-.4446h3.5556c.2454 0 .4444.1989.4444.4446v3.5554c0 .2456-.199.4446-.4444.4446-.2455 0-.4445-.199-.4445-.4446z" fill="#518738"/></svg>

<?xml version="1.0" encoding="UTF-8" standalone="no"?>
<!DOCTYPE svg PUBLIC "-//W3C//DTD SVG 1.1//EN" "http://www.w3.org/Graphics/SVG/1.1/DTD/svg11.dtd">
<svg version="1.1" xmlns="http://www.w3.org/2000/svg" xmlns:xl="http://www.w3.org/1999/xlink" xmlns:dc="http://purl.org/dc/elements/1.1/" viewBox="-997.645 -3568.3335 24.75 24.75" width="24.75" height="24.75">
  <defs/>
  <g id="SOURCES" stroke-dasharray="none" fill="none" stroke="none" fill-opacity="1" stroke-opacity="1">
    <title>SOURCES</title>
    <g id="SOURCES_Calque_1">
      <title>Calque 1</title>
      <g id="Graphic_6509">
        <path d="M -980.8256 -3550.4078 C -979.1606 -3551.741 -978.1589 -3553.7647 -978.1589 -3555.9595 C -978.1589 -3559.723 -981.0916 -3562.829 -984.8296 -3563.0572 C -985.0746 -3563.072 -985.2611 -3563.283 -985.2462 -3563.528 C -985.2312 -3563.773 -985.0205 -3563.9594 -984.7755 -3563.9445 C -980.5691 -3563.6877 -977.27 -3560.1936 -977.27 -3555.9595 C -977.27 -3553.5036 -978.3857 -3551.237 -980.2409 -3549.7373 L -977.7145 -3549.7373 C -977.469 -3549.7373 -977.27 -3549.5383 -977.27 -3549.293 C -977.27 -3549.0474 -977.469 -3548.8484 -977.7145 -3548.8484 L -981.27 -3548.8484 C -981.5155 -3548.8484 -981.7145 -3549.0474 -981.7145 -3549.293 L -981.7145 -3552.8484 C -981.7145 -3553.094 -981.5155 -3553.293 -981.27 -3553.293 C -981.0246 -3553.293 -980.8256 -3553.094 -980.8256 -3552.8484 L -980.8256 -3550.4078 Z M -989.7145 -3561.5113 C -991.3794 -3560.178 -992.3812 -3558.1545 -992.3812 -3555.9595 C -992.3812 -3552.184 -989.4304 -3549.072 -985.6782 -3548.86 C -985.4331 -3548.846 -985.2457 -3548.636 -985.2596 -3548.391 C -985.2734 -3548.146 -985.4833 -3547.9586 -985.7284 -3547.9724 C -989.9506 -3548.211 -993.27 -3551.712 -993.27 -3555.9595 C -993.27 -3558.4156 -992.1543 -3560.682 -990.2992 -3562.1818 L -992.8256 -3562.1818 C -993.0711 -3562.1818 -993.27 -3562.3807 -993.27 -3562.626 C -993.27 -3562.8717 -993.0711 -3563.0706 -992.8256 -3563.0706 L -989.27 -3563.0706 C -989.0246 -3563.0706 -988.8256 -3562.8717 -988.8256 -3562.626 L -988.8256 -3559.0706 C -988.8256 -3558.825 -989.0246 -3558.626 -989.27 -3558.626 C -989.5155 -3558.626 -989.7145 -3558.825 -989.7145 -3559.0706 Z" fill="#518738"/>
      </g>
      <g id="Graphic_6525"/>
    </g>
  </g>
</svg>
